!!!OTL: Des Grafen Toechterlein.
!!!OTL-incipit: Nun hoeret an und schweiget still,
!!!ARE: Europa, Mitteleuropa, Deutschland / France, Lothringen
!!!YOR: 3, S. 186
!!    ????
!!!SCT: Q1063D
!!!YEM: Copyright 1995, estate of Helmut Schaffrath.
**kern	**text
*ICvox	*
!! Irregular meter.
*MX	*
*k[b-]	*
*F:	*
!LO:TX:a:t=Der Markgraf von Backenweil (thr. LA 1389)	!
{4c	Nun
=1:	=1:
4f	hö-
4e	-ret
2f	an
8gL	und
8aJ	.
=2:	=2:
4b-	ſchweiget
4a	.
2g}	ſtill,
{4a	was
=3:	=3:
4f	ich
4c	euch
4f	ſingen
4f	.
4r	.
4g	und
=4:	=4:
4b-	ſa-
4a	-gen
2g}	will
{(4.cc	von
8b-)	.
=5:	=5:
4a	ei-
4g	-nem
4f	armen
4f	.
4g	Graf
=6:	=6:
(2a	Va-
2g)	.
=7:	=7:
2f}	-ken
{2g	Er
=8:	=8:
(4f	iſt
4e)	.
4d	geʒogen
4.c	.
8d	.
8c	in
8c	den
=9:	=9:
4f	ungariſchen
4g	.
8.aL	.
16fJ	.
2g}	Krieg,
{8cc	.
8b-	von
=10:	=10:
4a	den
4g	Türken
4f	wird
4f	er
4g	ge-
=11:	=11:
(2a	-fan-
2g)	.
=12:	=12:
2f	-gen.
4r}	.
==	==
!!!AGN: Ballade
!! Melodievergleich zu Q0063, anderes Lied "Der Markgraf von Backenweil"
!!    Aehnliche Fassung schon aus anderem Balladenband kodiert ??
!!    Transkription einer Tonaufnahme.
!!!ONB: ESAC (Essen Associative Code) Database: BALLADE
!!!AMT: irregular
!!!AIN: vox
!!!EED: Helmut Schaffrath
!!!EEV: 1.0
!!!source: Deutsche Volkslieder mit ihren Melodien. Herausgegeben vom Deutschen Volksliedarchiv. Dritter Band Balladen. Berlin 1954.
!!!page: 186
!!!ENC: Anna Maria Matuszewska
!!!EEV: 2025/02/21
*-	*-
